X:1
T:Thy Breath, O Lamb, as Rushing Wind
T:Thy Breath, O Lamb, as Rushing Wind
T:Carl Gläser, 1828, arr. by Lowell Mason, 1839
T:Stephen Popovich, 2016
T:Public Domain Courtesy of the Cyber Hymnal™
C:Carl Gläser, 1828, arr. by Lowell Mason, 1839
Z:Public Domain
Z:Courtesy of the Cyber Hymnal™
%%score ( 1 2 ) ( 3 4 )
L:1/8
Q:1/4=100
M:3/4
K:G
V:1 treble 
V:2 treble 
V:3 bass 
V:4 bass 
V:1
 D2 | [DG][B,G] [DA]2 [DA]2 | [DB][CA] [B,G]2 [DA]2 | [DB][DB] [Dc]2 [DB]2 | [DA]4 [Fd]2 | %5
w: 1.~Thy|breath, O Lamb, as|rush- ing wind Des-|cen- deth from a-|bove With|
w: 2.~As|wa- ter rains o’er|bar- ren earth, Its|vi- sage to re-|claim, So|
w: 3.~That|in our heart this|Trin- i- ty Of|wa- ter, blood and|breath, Might|
w: 4.~That|in Thee is e-|ter- nal life Thou|giv- est all who|come By|
w: 5.~’Tis|of this trea- sure|love is sown Whose|leaves in me un-|furl; A|
w: 6.~Lo,|God’s right hand through|na- ture frail Doth|tend be- night- ed|ground. Its|
 [Gd][DB] [DB]2 [DG]2 | [EG][CE] [CE]2 (GC) | [B,D][B,G] [B,G]2 [CA]2 | [B,G]4 |] %9
w: tongue of fi- re|to ex- tend Through *|ves- sels washed in|blood.|
w: words of life in|man re- turn To *|man- i- fest Thy|name.|
w: tes- ti- fy a|mys- te- ry To *|souls un- done by|death.|
w: sim- ple faith, and|through Thee find The *|prom- ised Three in|One.|
w: wit- ness so the|lost might know God’s *|mer- cy for this|world.|
w: light and life will|vic- tory hail By *|fruit and gold- en|crowns.|
V:2
 D2 | x6 | x6 | x6 | x6 | x6 | x4 E2 | x6 | x4 |] %9
V:3
 D,2 | [B,,D,][G,,G,] [D,F,]2 [D,F,]2 | G,[D,F,] [E,G,]2 [D,F,]2 | G,G, [F,A,]2 G,2 | %4
 [D,F,]4 [D,A,]2 | [G,B,]G, G,2 [B,,G,]2 | [C,G,][C,G,] [C,G,]2 [C,G,]2 | %7
 [D,G,][D,G,] [D,G,]2 [D,F,]2 | [G,,G,]4 |] %9
V:4
 D,2 | x6 | G, x5 | G,G, x G,2 x | x6 | x G, G,2 x2 | x6 | x6 | x4 |] %9

